dist/svgs/geomicons-open/icons/trash.svg

<svg xmlns="http://www.w3.org/2000/svg" viewBox="0 0 32 32"><path d="M4 4h6l2-2h8l2 2h6l1 4H3zm1 6h22l-1 20H6z"/></svg>

<svg id="trash" xmlns="http://www.w3.org/2000/svg" viewBox="0 0 32 32" width="32" height="32" fill="currentcolor">
  <path d="M4 4 L10 4 L12 2 L20 2 L22 4 L28 4 L29 8 L3 8 z M5 10 L27 10 L26 30 L6 30 z"></path>
</svg>
